X:1
T:O della prima piaga
T:Marc'Antonio Tornioli
T:Source : Canzonette spirituali a tre voci---Libro Primo---Venetia---Ang.Gardano---1607. Editor : André Vierendeels (18/06/16).
T:Notes : Original clefs : G2, G2, F3 
T:O della prima piaga
T:©
T:©
T:©
C:Marc'Antonio Tornioli
Z:©
%%score [ 1 2 3 ]
L:1/8
Q:1/4=121
M:4/4
K:C
V:1 treble nm="Soprano 1" snm="S 1"
V:2 treble nm="Soprano 2" snm="S 2"
V:3 bass nm="Bass" snm="B"
V:1
 z2 d2 e2 d2 | d2 d2 d4 | e2 c2 c4 | d2 B4 ^c2 | A2 A2 z4 | z2 Bc d4- | d2 cB A2 A2 | z2 ef g4- | %8
w: O del- la|pri- ma pia-|ga, del ce-|le- ste Bam-|bi- no,|pri- mo- ge-|* ni- to san- gue,|pri- mo- ge-|
 g2 fe d4 |[M:2/4] e4 ::[M:4/4] z2 g2 g2 g2 | f2 d2 g3 f | gfge d4 | f4 e4 | d4 d2 e2 | gfec d4 | %16
w: * ni- ta va-|ga,|del mi'a- mor|l'al- ma va- *|* * * * ga,|hu- mil-|ti'a- do- ra'e|ti con- sa- cra'in tan-|
 c4 e2 d2 | c2 BA G4 | z2 gf efgf | edcB AGAB | cB A3 A G2- | G2 ^F2 G4 :| %22
w: to, in su|fiam- ma di cor|fiu- * * * * *||* * me di pian-|* * to.|
V:2
 B4 c2 B2 | A2 A2 B c2 B | c2 A2 A2 A2- | A2 G4 G2 | ^F4 F2 GA | B6 AG | ^F4 F2 cd | e6 dc | %8
w: O del- la|pri- ma pia- * *|ga, del ce- le-|* ste Bam-|bi- no, pri- mo-|ge- ni- to|san- gue, pri- mo-|ge- ni- ta|
 B2 c4 B2 |[M:2/4] c4 ::[M:4/4] z2 e2 d2 e2 | A2 B2 e3 d | edec B4 | A4 c4 | A4 BAGF | %15
w: va- * *|ga,|del mi'a- mor|l'al- ma va- *|* * * * ga,|hu- mil|ti'a- do- ra'e ti con-|
 E2 c2 c2 B2 | c4 z4 | e2 d2 c2 BA | G4 gfef | gfed cBAG | AB c3 c B2 | A4 G4 :| %22
w: sa- cra'in tan- *|to,|in su fiam- ma di|cor fiu- * * *||* * me di- pian-|* to.|
V:3
 G,4 C,2 G,2 | G,2 ^F,2 G,4 | C,2 F,2 F,2 F,2- | F,2 G,4 E,2 | D,4 D,2 E,F, | G,6 F,E, | %6
w: O del- la|pri- ma pia-|ga, del ce- le-|* ste Bam-|bi- no, pri- mo-|ge- ni- to|
 D,4 D,2 A,B, | C6 B,A, | G,8 |[M:2/4] C,4 ::[M:4/4] C4 B,2 C2 | F,2 G,2 C,4- | C,4 G,4 | D,4 A,4 | %14
w: san- gue, pri- mo-|ge- n- ta|va-|ga,|del mi'a- mor|l'al- tra va-|* ga,|hu- mil|
 ^F,4 G,F,E,D, | C,2 C,2 G,4 | C,4 C,4- | C,2 D,2 E,4- | E,4 C,4 | C,4 F,4- | F,2 F,2 F,2 G,2 | %21
w: ti'a- do- ra'e ti con-|sa- cra'in tan-|to, in|_ su fiam-|* ma|di cor|_ fiu- me di|
 C,2 D,2 G,4 :| %22
w: pian- * to.|

